X: 211
U:~=!turn!
M:C
L:1/8
K:D
e | Acec fdec | Acec e2 c2 | Acec fdec | fBBc d2 c2 :| ABca ecca | ecca e2 c2 |
|: AAAg fdec | AAAf e2 c2 | AAAg fdec | fBBc d2 c2 :| aece Aece | aecf e2 c2 |
aece Acec | fBBc d2c2 | aece Acec | aece e2c2 | aece Aece | dfBc d2 c |]


